svg/fluentui-system-icons/ic_fluent_camera_sparkles_20_regular.svg

<svg width="20" height="20" viewBox="0 0 20 20" fill="none" xmlns="http://www.w3.org/2000/svg">
<path d="M15.226 1.35305L14.8777 0.282251C14.8486 0.19972 14.7946 0.128252 14.7231 0.0776997C14.6516 0.0271473 14.5662 0 14.4786 0C14.391 0 14.3056 0.0271473 14.2341 0.0776997C14.1626 0.128252 14.1085 0.19972 14.0794 0.282251L13.7311 1.35305C13.625 1.67631 13.4454 1.97065 13.2066 2.21307C12.9677 2.45549 12.6759 2.63941 12.3541 2.75044L11.2825 3.09845C11.1999 3.12757 11.1284 3.18157 11.0778 3.25301C11.0272 3.32445 11 3.40981 11 3.49733C11 3.58484 11.0272 3.6702 11.0778 3.74164C11.1284 3.81308 11.1999 3.86708 11.2825 3.8962L12.3541 4.24421C12.6292 4.33588 12.883 4.48064 13.1014 4.66973C13.1421 4.70496 13.1815 4.74173 13.2197 4.77999C13.4202 4.98116 13.5796 5.21872 13.6897 5.47932C13.7128 5.53422 13.7338 5.59014 13.7525 5.64696L14.1008 6.71775C14.1271 6.79215 14.1736 6.85755 14.2349 6.90675C14.2416 6.91213 14.2484 6.91732 14.2555 6.92231C14.327 6.97286 14.4124 7.00001 14.5 7.00001C14.5876 7.00001 14.673 6.97286 14.7445 6.92231C14.816 6.87175 14.87 6.80029 14.8992 6.71775L15.2475 5.64696C15.3558 5.32141 15.5385 5.0256 15.7813 4.78302C16.0241 4.54044 16.3201 4.35778 16.6459 4.24956L17.7175 3.90155C17.8001 3.87244 17.8716 3.81844 17.9222 3.747C17.9728 3.67556 18 3.5902 18 3.50268C18 3.41516 17.9728 3.3298 17.9222 3.25836C17.8716 3.18692 17.8001 3.13292 17.7175 3.10381L17.6961 3.09845L16.6245 2.75044C16.2987 2.64223 16.0026 2.45957 15.7599 2.21699C15.5171 1.97441 15.3343 1.67859 15.226 1.35305ZM19.0175 7.96461L19.7829 8.21319L19.7982 8.21701C19.8572 8.23781 19.9083 8.27638 19.9445 8.32741C19.9806 8.37844 20 8.43941 20 8.50192C20 8.56443 19.9806 8.62541 19.9445 8.67643C19.9083 8.72746 19.8572 8.76603 19.7982 8.78683L19.0328 9.03541C18.8001 9.11271 18.5886 9.24317 18.4152 9.41645C18.2418 9.58972 18.1113 9.80101 18.0339 10.0335L17.7851 10.7984C17.7643 10.8574 17.7257 10.9084 17.6746 10.9445C17.6236 10.9806 17.5626 11 17.5 11C17.4374 11 17.3764 10.9806 17.3254 10.9445C17.2743 10.9084 17.2357 10.8574 17.2149 10.7984L16.9661 10.0335C16.8893 9.80031 16.7589 9.58824 16.5855 9.41428C16.412 9.24032 16.2003 9.10926 15.9672 9.03158L15.2018 8.78301C15.1428 8.76221 15.0917 8.72364 15.0555 8.67261C15.0194 8.62158 15 8.56061 15 8.4981C15 8.43558 15.0194 8.37461 15.0555 8.32358C15.0917 8.27255 15.1428 8.23398 15.2018 8.21319L15.9672 7.96461C16.1971 7.8853 16.4055 7.75392 16.5761 7.58077C16.7467 7.40762 16.875 7.19737 16.9508 6.96647L17.1996 6.20161C17.2204 6.14266 17.259 6.09161 17.31 6.05551C17.3611 6.0194 17.4221 6.00001 17.4847 6.00001C17.5473 6.00001 17.6083 6.0194 17.6593 6.05551C17.7104 6.09161 17.749 6.14266 17.7698 6.20161L18.0186 6.96647C18.0959 7.199 18.2265 7.4103 18.3999 7.58357C18.5733 7.75684 18.7848 7.88731 19.0175 7.96461ZM8.12412 2H11.4066L11 2.15002C10.7108 2.24248 10.4609 2.42905 10.29 2.68002C10.2141 2.77866 10.1522 2.88633 10.1053 3H8.12412C7.9351 3 7.76224 3.10659 7.67736 3.27548L6.94943 4.72392C6.86455 4.89281 6.69169 4.9994 6.50268 4.9994H4.50488C3.67646 4.9994 3.00488 5.67097 3.00488 6.4994V14.5C3.00488 15.3284 3.67646 16 4.50488 16H15.5049C16.3333 16 17.0049 15.3284 17.0049 14.5V11.9016C17.1609 11.9665 17.3291 12.0004 17.5 12.0004C17.6745 12.0004 17.8461 11.9651 18.0049 11.8975V14.5C18.0049 15.8807 16.8856 17 15.5049 17H4.50488C3.12417 17 2.00488 15.8807 2.00488 14.5V6.4994C2.00488 5.11868 3.12417 3.9994 4.50488 3.9994H6.19437L6.78386 2.82643C7.03849 2.31977 7.55707 2 8.12412 2ZM10.0002 6.00003C7.79104 6.00003 6.00018 7.79089 6.00018 10C6.00018 12.2092 7.79104 14 10.0002 14C12.2093 14 14.0002 12.2092 14.0002 10C14.0002 7.79089 12.2093 6.00003 10.0002 6.00003ZM7.00018 10C7.00018 8.34318 8.34333 7.00003 10.0002 7.00003C11.657 7.00003 13.0002 8.34318 13.0002 10C13.0002 11.6569 11.657 13 10.0002 13C8.34333 13 7.00018 11.6569 7.00018 10Z" fill="#212121"/>
</svg>

<svg xmlns="http://www.w3.org/2000/svg" width="20" height="20"><path d="m15.226 1.353-.348-1.07a.423.423 0 0 0-.799 0l-.348 1.07a2.206 2.206 0 0 1-1.377 1.397l-1.071.348a.423.423 0 0 0 0 .798l1.071.348a2.208 2.208 0 0 1 1.399 1.403l.348 1.07a.423.423 0 0 0 .798 0l.349-1.07a2.205 2.205 0 0 1 1.398-1.397l1.072-.348a.423.423 0 0 0 0-.798l-.022-.006-1.072-.348a2.207 2.207 0 0 1-1.398-1.397Zm3.791 6.612.766.248.015.004a.303.303 0 0 1 0 .57l-.765.248a1.577 1.577 0 0 0-1 .998l-.248.765a.302.302 0 0 1-.57 0l-.249-.764a1.575 1.575 0 0 0-.999-1.002l-.765-.249a.303.303 0 0 1 0-.57l.765-.248a1.577 1.577 0 0 0 .984-.999l.249-.764a.302.302 0 0 1 .57 0l.249.764a1.575 1.575 0 0 0 .998.999ZM8.124 2h3.283L11 2.15a1.36 1.36 0 0 0-.71.53 1.4 1.4 0 0 0-.185.32h-1.98a.5.5 0 0 0-.448.275L6.95 4.724a.5.5 0 0 1-.446.275H4.505a1.5 1.5 0 0 0-1.5 1.5V14.5a1.5 1.5 0 0 0 1.5 1.5h11a1.5 1.5 0 0 0 1.5-1.5v-2.598a1.289 1.289 0 0 0 1-.004V14.5a2.5 2.5 0 0 1-2.5 2.5h-11a2.5 2.5 0 0 1-2.5-2.5v-8a2.5 2.5 0 0 1 2.5-2.5h1.69l.589-1.174A1.5 1.5 0 0 1 8.124 2ZM10 6a4 4 0 1 0 0 8 4 4 0 0 0 0-8Zm-3 4a3 3 0 1 1 6 0 3 3 0 0 1-6 0Z"/></svg>
